static/assets/head_icons_png/man/bizi/1035270.svg

<svg xmlns="http://www.w3.org/2000/svg" width="7" height="10"><g transform="translate(3.05 4.6)"><radialGradient id="a" gradientUnits="userSpaceOnUse" gradientTransform="rotate(2.106 436.198 -1.285) scale(.01362)" spreadMethod="pad" cx="0" cy="0" r="819.2" fx="0" fy="0"><stop offset="0" stop-color="#fbbd9d"/><stop offset="1" stop-color="#fedec1"/></radialGradient><path d="M1.15 2.15q-.5.8-.75 1.8l-.1.55H.2l-.2.1-.25-.05-.25-.9-.65-1.35-.2-.25-.55-.7-.2-.2-.45-.35-.05-.05.35-.7.55-1.3-.1-.3-.3-.55-.4-.6-.25-.35h.25q.55 0 .65-.25l-.35-.1-.3-.1-.55-.2H-3q.55-.9 3.2-.9 2.65 0 2.85.9h.05l-.55.2-.3.1-.35.1q.1.25.65.25h.25l-.25.35-.35.6-.35.6L1.6-.15l.35 1.3v.05l-.8.95" fill="url(#a)"/><radialGradient id="b" gradientUnits="userSpaceOnUse" gradientTransform="rotate(6.577 -64.97 96.623) scale(.01003)" spreadMethod="pad" cx="0" cy="0" r="819.2" fx="0" fy="0"><stop offset="0" stop-color="#fbbd9d"/><stop offset="1" stop-color="#fedec1"/></radialGradient><path d="M1.95 1.2L2.3.85 2.65.6l.05.15V1.05L2.3 2.1l.25.35.4.6.05.4q0 .9-1.45 1.15L.7 4.5H.3l.1-.55q.25-1 .75-1.8l.8-.95" fill="url(#b)"/><radialGradient id="c" gradientUnits="userSpaceOnUse" gradientTransform="rotate(6.537 -86.314 -94.986) scale(.01049)" spreadMethod="pad" cx="0" cy="0" r="819.2" fx="0" fy="0"><stop offset="0" stop-color="#fbbd9d"/><stop offset="1" stop-color="#fedec1"/></radialGradient><path d="M-.25 4.55l-.3-.05-.85.1q-1.45-.2-1.45-1.1l.15-.6.3-.4.5-1.15.55.7.2.25.65 1.35.25.9" fill="url(#c)"/><path d="M.45 4.25l.75-.8.3-.1.3.15q-.05.65-1.1.65l-.25.1m-1.05-.1q-1.1 0-1.1-.65.15-.2.3-.15l.25.1.6.7H-.6" fill="#662001" fill-opacity=".702"/><radialGradient id="d" gradientUnits="userSpaceOnUse" gradientTransform="matrix(.0078 0 0 .00969 4.45 -.85)" spreadMethod="pad" cx="0" cy="0" r="819.2" fx="0" fy="0"><stop offset="0" stop-color="#f58b69"/><stop offset=".353" stop-color="#f8a989" stop-opacity=".627"/><stop offset="1" stop-color="#fcc8aa" stop-opacity=".259"/></radialGradient><path d="M1.6-.15l.35 1.3.35.95.05.2.1.2-.25-.2h-.05l-.85.15Q.6.85.75-.65L1-2.95l.6-.5.55-.2.4-.15.35-.05.2.15-.55.2-.3.1-.35.1q.1.25.65.25h.25l-.25.35-.35.6-.35.6L1.6-.15" fill="url(#d)"/><radialGradient id="e" gradientUnits="userSpaceOnUse" gradientTransform="matrix(.00352 0 0 .00352 1.5 -.6)" spreadMethod="pad" cx="0" cy="0" r="819.2" fx="210473" fy="0"><stop offset=".337" stop-color="#f9c29f"/><stop offset="1" stop-color="#fedec1" stop-opacity="0"/></radialGradient><path d="M1.85-1.5Q2-.65 2.5.3l.2.45V1.05L2.3 2.1l-.35-.95-.35-1.3.25-1.35" fill="url(#e)"/><radialGradient id="f" gradientUnits="userSpaceOnUse" gradientTransform="translate(.15 4.15) scale(.00241)" spreadMethod="pad" cx="0" cy="0" r="819.2" fx="0" fy="0"><stop offset="0" stop-color="#f39b61"/><stop offset="1" stop-color="#f8be98"/></radialGradient><path d="M2.45 3.05l.05.05h-.05l-.4-.4-.55-.1-.5.05.25-.2h.05l.85-.15h.05l.25.2-.1-.2.2.15.4.6h-.5m-4.75 0h-.45l.05-.15.3-.4.3-.2.9.15.35.25-.5-.05q-.75 0-.95.45h-.05l.05-.05" fill="url(#f)"/><radialGradient id="g" gradientUnits="userSpaceOnUse" gradientTransform="matrix(.00241 0 0 .00201 .15 3.9)" spreadMethod="pad" cx="0" cy="0" r="819.2" fx="0" fy="0"><stop offset="0" stop-color="#f39b61"/><stop offset="1" stop-color="#f8be98"/></radialGradient><path d="M2.95 3.05l.05.4q0 .9-1.45 1.15L.7 4.5H.2l-.2.1-.55-.1-.85.1q-1.45-.2-1.45-1.1l.05-.45h.5l-.05.05-.05.15v.2l.6.75h.05l-.2-.7q.05-.35.4-.35.35-.05.6.25l.8.45H.3l.75-.5q.3-.3.65-.25.35 0 .4.35l-.2.7h.05l.6-.75-.05-.3-.05-.05h.5M.7 4.15q1.05 0 1.1-.65l-.3-.15-.3.1-.75.8.25-.1m-1.25 0l-.6-.7-.25-.1q-.15-.05-.3.15 0 .65 1.1.65h.05" fill="url(#g)"/><radialGradient id="h" gradientUnits="userSpaceOnUse" gradientTransform="matrix(.00409 0 0 .00409 .25 3.8)" spreadMethod="pad" cx="0" cy="0" r="819.2" fx="0" fy="0"><stop offset="0" stop-color="#f39b61"/><stop offset="1" stop-color="#ffcfb0"/></radialGradient><path d="M-2.1 2.3l-.3.2.55-1.35.35-1.3-.2-1.1-.1-.3-.3-.55-.4-.6-.25-.35h.25q.55 0 .65-.25l-.35-.1-.3-.1-.55-.2.25-.15.3.05.45.15.5.2.65.5.2 2.3q.15 1.55-.5 3.1l-.9-.15" fill="url(#h)"/><radialGradient id="i" gradientUnits="userSpaceOnUse" gradientTransform="matrix(.00348 0 0 .00348 -1.55 -.6)" spreadMethod="pad" cx="0" cy="0" r="819.2" fx="210473" fy="0"><stop offset=".337" stop-color="#f9c29f"/><stop offset="1" stop-color="#fedec1" stop-opacity="0"/></radialGradient><path d="M-2.7 2.9l-.35-.65v-.8l.05-.1.75-1.3.55-1.3.2 1.1-.35 1.3-.55 1.35-.3.4" fill="url(#i)"/><radialGradient id="j" gradientUnits="userSpaceOnUse" gradientTransform="rotate(5.652 -47.172 4.21) scale(.00069)" spreadMethod="pad" cx="0" cy="0" r="819.2" fx="0" fy="0"><stop offset=".286" stop-color="#fff" stop-opacity=".631"/><stop offset="1" stop-color="#fff" stop-opacity="0"/></radialGradient><path d="M.6 3.2l-.2.35-.4.15-.35-.2-.2-.4.2-.35.4-.15.45.15.1.45" fill="url(#j)"/><radialGradient id="k" gradientUnits="userSpaceOnUse" gradientTransform="matrix(.00092 .00008 -.00005 .00285 .05 0)" spreadMethod="pad" cx="0" cy="0" r="819.2" fx="0" fy="0"><stop offset=".314" stop-color="#fff" stop-opacity=".431"/><stop offset="1" stop-color="#fff" stop-opacity="0"/></radialGradient><path d="M.65.1l-.2 1.6-.1.35v.1l-.3.2-.25-.3L-.25 2l-.05-.35L-.45 0l.15-1.65q.15-.7.4-.65l.45.75L.65.1" fill="url(#k)"/></g></svg>

<?xml version="1.0" encoding="utf-8"?>
<svg version="1.1" id="Layer_1"
xmlns="http://www.w3.org/2000/svg"
xmlns:xlink="http://www.w3.org/1999/xlink"
xmlns:author="http://www.sothink.com"
width="7px" height="10px"
xml:space="preserve">
<g id="490" transform="matrix(1, 0, 0, 1, 3.05, 4.6)">
<radialGradient
id="RadialGradID_4206" gradientUnits="userSpaceOnUse" gradientTransform="matrix(0.0136108, 0.000473022, -0.000473022, 0.0136108, 0.25, -15.15)" spreadMethod ="pad" cx="0" cy="0" r="819.2" fx="0" fy="0" >
<stop  offset="0"  style="stop-color:#FBBD9D;stop-opacity:1" />
<stop  offset="1"  style="stop-color:#FEDEC1;stop-opacity:1" />
</radialGradient>
<path style="fill:url(#RadialGradID_4206) " d="M1.15,2.15Q0.65 2.95 0.4 3.95L0.3 4.5L0.2 4.5L0 4.6L-0.25 4.55L-0.5 3.65L-1.15 2.3L-1.35 2.05L-1.9 1.35L-2.1 1.15L-2.55 0.8L-2.6 0.75L-2.25 0.05L-1.7 -1.25L-1.8 -1.55L-2.1 -2.1L-2.5 -2.7L-2.75 -3.05L-2.5 -3.05Q-1.95 -3.05 -1.85 -3.3L-2.2 -3.4L-2.5 -3.5L-3.05 -3.7L-3 -3.7Q-2.45 -4.6 0.2 -4.6Q2.85 -4.6 3.05 -3.7L3.1 -3.7L2.55 -3.5L2.25 -3.4L1.9 -3.3Q2 -3.05 2.55 -3.05L2.8 -3.05L2.55 -2.7L2.2 -2.1L1.85 -1.5L1.6 -0.15L1.95 1.15L1.95 1.2L1.15 2.15" />
<radialGradient
id="RadialGradID_4207" gradientUnits="userSpaceOnUse" gradientTransform="matrix(0.00996399, 0.00112915, -0.00112915, 0.00996399, 10.45, 7.95)" spreadMethod ="pad" cx="0" cy="0" r="819.2" fx="0" fy="0" >
<stop  offset="0"  style="stop-color:#FBBD9D;stop-opacity:1" />
<stop  offset="1"  style="stop-color:#FEDEC1;stop-opacity:1" />
</radialGradient>
<path style="fill:url(#RadialGradID_4207) " d="M1.95,1.2L2.3 0.85L2.65 0.6L2.7 0.75L2.7 0.95L2.7 1.05L2.3 2.1L2.55 2.45L2.95 3.05L3 3.45Q3 4.35 1.55 4.6L0.7 4.5L0.3 4.5L0.4 3.95Q0.65 2.95 1.15 2.15L1.95 1.2" />
<radialGradient
id="RadialGradID_4208" gradientUnits="userSpaceOnUse" gradientTransform="matrix(0.0104218, 0.00117493, -0.00117493, 0.0104218, -11.2, 9.05)" spreadMethod ="pad" cx="0" cy="0" r="819.2" fx="0" fy="0" >
<stop  offset="0"  style="stop-color:#FBBD9D;stop-opacity:1" />
<stop  offset="1"  style="stop-color:#FEDEC1;stop-opacity:1" />
</radialGradient>
<path style="fill:url(#RadialGradID_4208) " d="M-0.25,4.55L-0.55 4.5L-1.4 4.6Q-2.85 4.4 -2.85 3.5L-2.7 2.9L-2.4 2.5L-1.9 1.35L-1.35 2.05L-1.15 2.3L-0.5 3.65L-0.25 4.55" />
<path style="fill:#662001;fill-opacity:0.701961" d="M0.45,4.25L1.2 3.45L1.5 3.35L1.8 3.5Q1.75 4.15 0.7 4.15L0.45 4.25M-0.6,4.15Q-1.7 4.15 -1.7 3.5Q-1.55 3.3 -1.4 3.35L-1.15 3.45L-0.55 4.15L-0.6 4.15" />
<radialGradient
id="RadialGradID_4209" gradientUnits="userSpaceOnUse" gradientTransform="matrix(0.00779724, 0, 0, 0.00968933, 4.45, -0.85)" spreadMethod ="pad" cx="0" cy="0" r="819.2" fx="0" fy="0" >
<stop  offset="0"  style="stop-color:#F58B69;stop-opacity:1" />
<stop  offset="0.352941"  style="stop-color:#F8A989;stop-opacity:0.627451" />
<stop  offset="1"  style="stop-color:#FCC8AA;stop-opacity:0.258824" />
</radialGradient>
<path style="fill:url(#RadialGradID_4209) " d="M1.6,-0.15L1.95 1.15L2.3 2.1L2.35 2.3L2.45 2.5L2.2 2.3L2.15 2.3L1.3 2.45Q0.6 0.85 0.75 -0.65L1 -2.95L1.6 -3.45L2.15 -3.65L2.55 -3.8L2.9 -3.85L3.1 -3.7L2.55 -3.5L2.25 -3.4L1.9 -3.3Q2 -3.05 2.55 -3.05L2.8 -3.05L2.55 -2.7L2.2 -2.1L1.85 -1.5L1.6 -0.15" />
<radialGradient
id="RadialGradID_4210" gradientUnits="userSpaceOnUse" gradientTransform="matrix(0.00352478, 0, 0, 0.00352478, 1.5, -0.6)" spreadMethod ="pad" cx="0" cy="0" r="819.2" fx="210473" fy="0" >
<stop  offset="0.337255"  style="stop-color:#F9C29F;stop-opacity:1" />
<stop  offset="1"  style="stop-color:#FEDEC1;stop-opacity:0" />
</radialGradient>
<path style="fill:url(#RadialGradID_4210) " d="M1.85,-1.5Q2 -0.65 2.5 0.3L2.7 0.75L2.7 0.95L2.7 1.05L2.3 2.1L1.95 1.15L1.6 -0.15L1.85 -1.5" />
<radialGradient
id="RadialGradID_4211" gradientUnits="userSpaceOnUse" gradientTransform="matrix(0.00241089, 0, 0, 0.00241089, 0.15, 4.15)" spreadMethod ="pad" cx="0" cy="0" r="819.2" fx="0" fy="0" >
<stop  offset="0"  style="stop-color:#F39B61;stop-opacity:1" />
<stop  offset="1"  style="stop-color:#F8BE98;stop-opacity:1" />
</radialGradient>
<path style="fill:url(#RadialGradID_4211) " d="M2.45,3.05L2.5 3.1L2.45 3.1L2.05 2.7L1.5 2.6L1 2.65L1.25 2.45L1.3 2.45L2.15 2.3L2.2 2.3L2.45 2.5L2.35 2.3L2.55 2.45L2.95 3.05L2.45 3.05M-2.3,3.05L-2.75 3.05L-2.7 2.9L-2.4 2.5L-2.1 2.3L-1.2 2.45L-0.85 2.7L-1.35 2.65Q-2.1 2.65 -2.3 3.1L-2.35 3.1L-2.3 3.05" />
<radialGradient
id="RadialGradID_4212" gradientUnits="userSpaceOnUse" gradientTransform="matrix(0.00241089, 0, 0, 0.00201416, 0.15, 3.9)" spreadMethod ="pad" cx="0" cy="0" r="819.2" fx="0" fy="0" >
<stop  offset="0"  style="stop-color:#F39B61;stop-opacity:1" />
<stop  offset="1"  style="stop-color:#F8BE98;stop-opacity:1" />
</radialGradient>
<path style="fill:url(#RadialGradID_4212) " d="M2.95,3.05L3 3.45Q3 4.35 1.55 4.6L0.7 4.5L0.2 4.5L0 4.6L-0.55 4.5L-1.4 4.6Q-2.85 4.4 -2.85 3.5L-2.8 3.05L-2.75 3.05L-2.3 3.05L-2.35 3.1L-2.4 3.25L-2.4 3.45L-1.8 4.2L-1.75 4.2L-1.95 3.5Q-1.9 3.15 -1.55 3.15Q-1.2 3.1 -0.95 3.4L-0.15 3.85L0.3 3.85L1.05 3.35Q1.35 3.05 1.7 3.1Q2.05 3.1 2.1 3.45L1.9 4.15L1.95 4.15L2.55 3.4L2.5 3.1L2.45 3.05L2.95 3.05M0.7,4.15Q1.75 4.15 1.8 3.5L1.5 3.35L1.2 3.45L0.45 4.25L0.7 4.15M-0.55,4.15L-1.15 3.45L-1.4 3.35Q-1.55 3.3 -1.7 3.5Q-1.7 4.15 -0.6 4.15L-0.55 4.15" />
<radialGradient
id="RadialGradID_4213" gradientUnits="userSpaceOnUse" gradientTransform="matrix(0.00408936, 0, 0, 0.00408936, 0.25, 3.8)" spreadMethod ="pad" cx="0" cy="0" r="819.2" fx="0" fy="0" >
<stop  offset="0"  style="stop-color:#F39B61;stop-opacity:1" />
<stop  offset="1"  style="stop-color:#FFCFB0;stop-opacity:1" />
</radialGradient>
<path style="fill:url(#RadialGradID_4213) " d="M-2.1,2.3L-2.4 2.5L-1.85 1.15L-1.5 -0.15L-1.7 -1.25L-1.8 -1.55L-2.1 -2.1L-2.5 -2.7L-2.75 -3.05L-2.5 -3.05Q-1.95 -3.05 -1.85 -3.3L-2.2 -3.4L-2.5 -3.5L-3.05 -3.7L-2.8 -3.85L-2.5 -3.8L-2.05 -3.65L-1.55 -3.45L-0.9 -2.95L-0.7 -0.65Q-0.55 0.9 -1.2 2.45L-2.1 2.3" />
<radialGradient
id="RadialGradID_4214" gradientUnits="userSpaceOnUse" gradientTransform="matrix(0.003479, 0, 0, 0.003479, -1.55, -0.6)" spreadMethod ="pad" cx="0" cy="0" r="819.2" fx="210473" fy="0" >
<stop  offset="0.337255"  style="stop-color:#F9C29F;stop-opacity:1" />
<stop  offset="1"  style="stop-color:#FEDEC1;stop-opacity:0" />
</radialGradient>
<path style="fill:url(#RadialGradID_4214) " d="M-2.7,2.9L-3.05 2.25L-3.05 1.45L-3 1.35L-2.25 0.05L-1.7 -1.25L-1.5 -0.15L-1.85 1.15L-2.4 2.5L-2.7 2.9" />
<radialGradient
id="RadialGradID_4215" gradientUnits="userSpaceOnUse" gradientTransform="matrix(0.000686646, 4.57764e-005, -4.57764e-005, 0.000686646, 0.05, 3.15)" spreadMethod ="pad" cx="0" cy="0" r="819.2" fx="0" fy="0" >
<stop  offset="0.286275"  style="stop-color:#FFFFFF;stop-opacity:0.631373" />
<stop  offset="1"  style="stop-color:#FFFFFF;stop-opacity:0" />
</radialGradient>
<path style="fill:url(#RadialGradID_4215) " d="M0.6,3.2L0.4 3.55L0 3.7L-0.35 3.5L-0.55 3.1L-0.35 2.75L0.05 2.6L0.5 2.75L0.6 3.2" />
<radialGradient
id="RadialGradID_4216" gradientUnits="userSpaceOnUse" gradientTransform="matrix(0.000915527, 7.62939e-005, -4.57764e-005, 0.00285339, 0.05, 0)" spreadMethod ="pad" cx="0" cy="0" r="819.2" fx="0" fy="0" >
<stop  offset="0.313725"  style="stop-color:#FFFFFF;stop-opacity:0.431373" />
<stop  offset="1"  style="stop-color:#FFFFFF;stop-opacity:0" />
</radialGradient>
<path style="fill:url(#RadialGradID_4216) " d="M0.65,0.1L0.45 1.7L0.35 2.05L0.35 2.15L0.05 2.35L-0.2 2.05L-0.25 2L-0.3 1.65L-0.45 0L-0.3 -1.65Q-0.15 -2.35 0.1 -2.3L0.55 -1.55L0.65 0.1" />
</g>
</svg>
